src/app/assets/icons/colored/early-bird.svg

<svg width="24" height="24" viewBox="0 0 24 24" fill="none" xmlns="http://www.w3.org/2000/svg">
<rect width="24" height="24" rx="12" fill="#36DB83"/>
<path d="M14.5614 9.8125C14.5614 9.96084 14.5175 10.1058 14.435 10.2292C14.3526 10.3525 14.2355 10.4486 14.0985 10.5054C13.9614 10.5622 13.8106 10.577 13.6651 10.5481C13.5196 10.5192 13.386 10.4477 13.2811 10.3428C13.1762 10.2379 13.1048 10.1043 13.0759 9.95882C13.0469 9.81333 13.0618 9.66253 13.1185 9.52549C13.1753 9.38844 13.2714 9.27131 13.3948 9.1889C13.5181 9.10649 13.6631 9.0625 13.8114 9.0625C14.0104 9.0625 14.2011 9.14152 14.3418 9.28217C14.4824 9.42282 14.5614 9.61359 14.5614 9.8125ZM17.7489 10.1875C17.7491 10.2802 17.7263 10.3715 17.6826 10.4533C17.639 10.5351 17.5758 10.6048 17.4986 10.6563L16.6239 11.2384V12.0625C16.6225 13.4047 16.0886 14.6915 15.1395 15.6406C14.1905 16.5897 12.9036 17.1235 11.5614 17.125H7.43645C7.25991 17.1248 7.08702 17.0748 6.93767 16.9806C6.78832 16.8865 6.66857 16.7521 6.59222 16.593C6.51587 16.4338 6.48601 16.2563 6.50608 16.0809C6.52615 15.9055 6.59533 15.7394 6.70567 15.6016L6.7127 15.5931L10.6239 10.8991V10.0417C10.6239 8.3725 11.9632 7.00797 13.6094 7H13.6239C14.2499 6.99935 14.8603 7.1947 15.3696 7.55863C15.8789 7.92256 16.2615 8.43681 16.4636 9.02922L17.4986 9.71875C17.5758 9.77021 17.639 9.83992 17.6826 9.9217C17.7263 10.0035 17.7491 10.0948 17.7489 10.1875ZM16.1725 10.1875L15.6714 9.85328C15.5555 9.77663 15.472 9.65974 15.4371 9.52516C15.3321 9.1242 15.0972 8.76931 14.7692 8.51599C14.4412 8.26266 14.0384 8.12517 13.6239 8.125H13.615C12.5861 8.13016 11.7494 8.98985 11.7494 10.0417V11.1025C11.7494 11.2343 11.7031 11.3618 11.6186 11.463L7.83817 16H8.79817L12.0672 12.0775C12.1138 12.0185 12.1717 11.9695 12.2375 11.9333C12.3033 11.897 12.3757 11.8744 12.4504 11.8666C12.5251 11.8588 12.6007 11.866 12.6725 11.8879C12.7444 11.9098 12.8112 11.9458 12.8689 11.9939C12.9266 12.042 12.9741 12.1012 13.0085 12.1679C13.043 12.2347 13.0638 12.3077 13.0696 12.3826C13.0754 12.4575 13.0661 12.5328 13.0423 12.604C13.0186 12.6753 12.9807 12.7411 12.9311 12.7975L10.2625 16H11.5614C12.6054 15.9989 13.6063 15.5837 14.3444 14.8455C15.0826 14.1073 15.4978 13.1064 15.4989 12.0625V10.9375C15.4989 10.8447 15.5217 10.7534 15.5655 10.6716C15.6092 10.5898 15.6725 10.5202 15.7497 10.4688L16.1725 10.1875Z" fill="#FAFAFC"/>
</svg>

<svg xmlns="http://www.w3.org/2000/svg" width="24" height="24" fill="none"><rect width="24" height="24" fill="#36DB83" rx="12"/><path fill="#FAFAFC" d="M14.561 9.813a.75.75 0 1 1-1.499 0 .75.75 0 0 1 1.5 0m3.188.374a.56.56 0 0 1-.25.47l-.875.581v.825a5.07 5.07 0 0 1-5.063 5.062H7.436a.937.937 0 0 1-.73-1.523l.007-.009 3.91-4.694v-.857c0-1.67 1.34-3.034 2.986-3.042h.015a3 3 0 0 1 2.84 2.03l1.035.689a.56.56 0 0 1 .25.469m-1.576 0-.502-.334a.56.56 0 0 1-.234-.328 1.875 1.875 0 0 0-1.813-1.4h-.009c-1.029.005-1.866.865-1.866 1.917v1.06c0 .132-.046.26-.13.361L7.839 16h.96l3.268-3.922a.562.562 0 1 1 .864.72L10.263 16h1.298a3.94 3.94 0 0 0 3.938-3.937v-1.126a.56.56 0 0 1 .25-.468z"/></svg>
